symbols/web/local_post_office/materialsymbolsrounded/local_post_office_fill1_48px.svg

<svg xmlns="http://www.w3.org/2000/svg" height="48" width="48"><path d="M5.65 44q-.7 0-1.175-.475Q4 43.05 4 42.35v-14.9q0-.7.475-1.175.475-.475 1.175-.475h6.65V15.5q0-4.85 3.425-8.175Q19.15 4 24 4h8.65q4.75 0 8.05 3.375Q44 10.75 44 15.5v27q0 .65-.425 1.075Q43.15 44 42.5 44q-.65 0-1.075-.425Q41 43.15 41 42.5v-4.25h-9.7v4.1q0 .75-.6 1.2-.6.45-1.4.45Zm25.65-8.75H41V15.5q0-3.5-2.425-6T32.65 7H24q-3.6 0-6.15 2.45-2.55 2.45-2.55 6.05v10.3h14q.8 0 1.4.45.6.45.6 1.2Zm-9.8-16q-.65 0-1.075-.425Q20 18.4 20 17.75q0-.65.425-1.075.425-.425 1.075-.425h13.3q.65 0 1.075.425.425.425.425 1.075 0 .65-.425 1.075-.425.425-1.075.425ZM17.65 37.2q.4 0 .775-.1t.725-.3l8.55-4.9q.25-.15.425-.4t.175-.65q0-.75-.625-1.05-.625-.3-1.175 0l-8.85 5.1-8.85-5.1q-.7-.35-1.25.025T7 30.85q0 .35.175.625t.425.425l8.55 4.9q.35.2.725.3.375.1.775.1Z"/></svg>

<svg xmlns="http://www.w3.org/2000/svg" height="48" width="48"><path d="M5.65 44Q4.95 44 4.475 43.525Q4 43.05 4 42.35V27.45Q4 26.75 4.475 26.275Q4.95 25.8 5.65 25.8H12.3V15.5Q12.3 10.65 15.725 7.325Q19.15 4 24 4H32.65Q37.4 4 40.7 7.375Q44 10.75 44 15.5V42.5Q44 43.15 43.575 43.575Q43.15 44 42.5 44Q41.85 44 41.425 43.575Q41 43.15 41 42.5V38.25H31.3V42.35Q31.3 43.1 30.7 43.55Q30.1 44 29.3 44ZM31.3 35.25H41V15.5Q41 12 38.575 9.5Q36.15 7 32.65 7H24Q20.4 7 17.85 9.45Q15.3 11.9 15.3 15.5V25.8H29.3Q30.1 25.8 30.7 26.25Q31.3 26.7 31.3 27.45ZM21.5 19.25Q20.85 19.25 20.425 18.825Q20 18.4 20 17.75Q20 17.1 20.425 16.675Q20.85 16.25 21.5 16.25H34.8Q35.45 16.25 35.875 16.675Q36.3 17.1 36.3 17.75Q36.3 18.4 35.875 18.825Q35.45 19.25 34.8 19.25ZM17.65 37.2Q18.05 37.2 18.425 37.1Q18.8 37 19.15 36.8L27.7 31.9Q27.95 31.75 28.125 31.5Q28.3 31.25 28.3 30.85Q28.3 30.1 27.675 29.8Q27.05 29.5 26.5 29.8L17.65 34.9Q17.65 34.9 17.65 34.9Q17.65 34.9 17.65 34.9L8.8 29.8Q8.1 29.45 7.55 29.825Q7 30.2 7 30.85Q7 31.2 7.175 31.475Q7.35 31.75 7.6 31.9L16.15 36.8Q16.5 37 16.875 37.1Q17.25 37.2 17.65 37.2Z"/></svg>
